assets/stickers/emoticons/stickers/imgly_sticker_emoticons_business.svg

<svg height="63" viewBox="0 0 60 63" width="60" xmlns="http://www.w3.org/2000/svg"><g fill="none"><g transform="translate(0 4)"><path d="m59.5 33.5c0 12.6-11.6 22.9-29.5 22.9s-29.5-10.2-29.5-22.9 11.6-31.6 29.5-31.6 29.5 19 29.5 31.6z" fill="#f7910b"/><path d="m59.5 33.5c0 12.6-11.6 19-29.5 19s-29.5-6.3-29.5-19 11.6-33.5 29.5-33.5 29.5 20.9 29.5 33.5z" fill="#f7910b"/><path d="m30 0c17.9 0 29.5 20.9 29.5 33.6s-11.6 19-29.5 19" fill="#f9a908"/><path d="m59.5 33.5c0 12.6-11.6 19-29.5 19s-29.5-6.3-29.5-19 11.6-31.6 29.5-31.6 29.5 19 29.5 31.6z" fill="#f9a908"/><path d="m.5 33.5c0-12.6 11.6-31.6 29.5-31.6" fill="#f9c55d"/><path d="m30 1.9c17.9 0 29.5 19 29.5 31.6s-11.6 22.9-29.5 22.9" fill="#f7910b"/><path d="m30 1.9c17.9 0 29.5 19 29.5 31.6" fill="#ea7103"/><g transform="translate(17 11)"><path d="m7.1.9c.2.8-1.3.8-3 1.2-1.7.5-3 1.2-3.2.4s1-1.9 2.7-2.3 3.3-.1 3.5.7z" fill="#19bca4"/><path d="m7.1.9c.2.8-1.3.8-3 1.2-1.7.5-3 1.2-3.2.4" fill="#109da0"/></g><g transform="translate(35 8)"><path d="m1 .9c-.3.8 1.1.9 2.8 1.6 1.6.7 2.8 1.7 3.1.9s-.7-2-2.3-2.7c-1.7-.6-3.2-.5-3.6.2z" fill="#19bca4"/><path d="m1 .9c-.3.8 1.1.9 2.8 1.6 1.6.7 2.8 1.7 3.1.9" fill="#109da0"/></g><circle cx="8.9" cy="30.6" fill="#f7910b" r="1"/><ellipse cx="4.6" cy="32.5" fill="#f7910b" rx="1.1" ry="1.1"/><circle cx="7.5" cy="28.6" fill="#f7910b" r="1"/><circle cx="11.9" cy="30.4" fill="#f7910b" r="1"/><g fill="#f9a908"><circle cx="50" cy="30.9" r="1"/><circle cx="52.4" cy="32.3" r="1"/><circle cx="47.3" cy="23.7" r="1"/><circle cx="46.8" cy="35" r="1.3"/><circle cx="53.8" cy="35.1" r="1"/></g><circle cx="8" cy="34.5" fill="#f7910b" r="1"/><circle cx="8.7" cy="26.3" fill="#f7910b" r="1"/><ellipse cx="3.6" cy="13" fill="#f9a908" rx="1.1" ry="1.1"/><circle cx="6.7" cy="9.5" fill="#f9a908" r="1"/><ellipse cx="56.5" cy="15.3" fill="#f9a908" rx="1" ry="1"/><g transform="translate(36 17)"><path d="m6.9 5.1c0 1.9-1.5 3.4-3.4 3.4s-3.4-1.5-3.4-3.4 1.5-3.4 3.4-3.4 3.4 1.5 3.4 3.4z" fill="#d87703"/><path d="m6.9 4.1c0 1.9-1.5 3.4-3.4 3.4s-3.4-1.5-3.4-3.4 1.5-3.4 3.4-3.4 3.4 1.5 3.4 3.4z" fill="#1e4784"/><path d="m3.5.7c1.9 0 3.4 1.5 3.4 3.4s-1.5 3.4-3.4 3.4" fill="#00233f"/></g><g transform="translate(17 17)"><circle cx="3.9" cy="5.1" fill="#d87703" r="3.4"/><circle cx="3.9" cy="4.1" fill="#1e4784" r="3.4"/><path d="m3.9.7c1.9 0 3.4 1.5 3.4 3.4s-1.5 3.4-3.4 3.4" fill="#00233f"/></g><ellipse cx="55.7" cy="12.4" fill="#f9a908" rx="1" ry="1"/><circle cx="58.2" cy="13" fill="#f9a908" r="1"/><ellipse cx="4.7" cy="15.8" fill="#f9a908" rx="1" ry="1"/><g transform="translate(10 24)"><path d="m15.9 3c0 1.2-3.4.6-7.6.6s-7.6.6-7.6-.6 3.4-2.2 7.6-2.2c4.2.1 7.6 1 7.6 2.2z" fill="#f9c55d"/><path d="m39.2 3c0 1.2-3.4.6-7.6.6s-7.6.6-7.6-.6 3.4-2.2 7.6-2.2c4.2.1 7.6 1 7.6 2.2z" fill="#f9a908"/></g></g><g transform="translate(0 38)"><path d="m.5 0c.3 12.7 11.8 22.4 29.5 22.4s29.2-10.4 29.5-22.4z" fill="#1e4784"/><path d="m30.2 22.4c17.7 0 29.1-10.2 29.2-22.4h-58.4" fill="#00233f"/><path d="m30 22.4c3.1 0 6-.1 8.6-.6l-4-19.8h-9.2l-4 19.8c2.6.5 5.5.6 8.6.6z" fill="#fffbee"/></g><path d="m25.344945 33.283245h9.39991v9.39991h-9.39991z" fill="#f7910b" transform="matrix(.70700677 -.70720678 .70720678 .70700677 -18.059024 32.376777)"/><path d="m34 37h-8c-.6 0-1-.4-1-1s.4-1 1-1h8c.6 0 1 .4 1 1s-.4 1-1 1z" fill="#02243e"/><path d="m52 45c0 .5-.4 1-1 1h-8c-.5 0-1-.4-1-1 0-.5.4-1 1-1h8c.6 0 1 .4 1 1z" fill="#fffbee"/><g transform="translate(26 40)"><path d="m1.5 2.3 1.3 2-2 16.1 2.3 2.6h.9v-22.2z" fill="#0c537a"/><path d="m6.5 2.3-1.3 2 2 16.1-2.3 2.6h-.9v-22.2z" fill="#00233f"/></g><path d="m35 8h-10v-7.4l2.4 2.4h7.6z" fill="#00233f"/></g></svg>

<?xml version="1.0" encoding="UTF-8"?>
<svg width="60px" height="63px" viewBox="0 0 60 63" version="1.1" xmlns="http://www.w3.org/2000/svg" xmlns:xlink="http://www.w3.org/1999/xlink">
    <!-- Generator: Sketch 43.1 (39012) - http://www.bohemiancoding.com/sketch -->
    <title>imgly_sticker_emoticons_business</title>
    <desc>Created with Sketch.</desc>
    <defs></defs>
    <g id="Page-1" stroke="none" stroke-width="1" fill="none" fill-rule="evenodd">
        <g id="business" fill-rule="nonzero">
            <g id="Group" transform="translate(0.000000, 4.000000)">
                <g>
                    <path d="M59.5,33.5 C59.5,46.1 47.9,56.4 30,56.4 C12.1,56.4 0.5,46.2 0.5,33.5 C0.5,20.8 12.1,1.9 30,1.9 C47.9,1.9 59.5,20.9 59.5,33.5 Z" id="Shape" fill="#F7910B"></path>
                    <path d="M59.5,33.5 C59.5,46.1 47.9,52.5 30,52.5 C12.1,52.5 0.5,46.2 0.5,33.5 C0.5,20.8 12.1,0 30,0 C47.9,0 59.5,20.9 59.5,33.5 Z" id="Shape" fill="#F7910B"></path>
                    <path d="M30,0 C47.9,0 59.5,20.9 59.5,33.6 C59.5,46.3 47.9,52.6 30,52.6" id="Shape" fill="#F9A908"></path>
                    <path d="M59.5,33.5 C59.5,46.1 47.9,52.5 30,52.5 C12.1,52.5 0.5,46.2 0.5,33.5 C0.5,20.8 12.1,1.9 30,1.9 C47.9,1.9 59.5,20.9 59.5,33.5 Z" id="Shape" fill="#F9A908"></path>
                    <path d="M0.5,33.5 C0.5,20.9 12.1,1.9 30,1.9" id="Shape" fill="#F9C55D"></path>
                    <path d="M30,1.9 C47.9,1.9 59.5,20.9 59.5,33.5 C59.5,46.1 47.9,56.4 30,56.4" id="Shape" fill="#F7910B"></path>
                    <path d="M30,1.9 C47.9,1.9 59.5,20.9 59.5,33.5" id="Shape" fill="#EA7103"></path>
                    <g transform="translate(17.000000, 8.000000)" id="Shape">
                        <g transform="translate(0.000000, 3.000000)">
                            <path d="M7.1,0.9 C7.3,1.7 5.8,1.7 4.1,2.1 C2.4,2.6 1.1,3.3 0.9,2.5 C0.7,1.7 1.9,0.6 3.6,0.2 C5.3,-0.2 6.9,0.1 7.1,0.9 Z" fill="#19BCA4"></path>
                            <path d="M7.1,0.9 C7.3,1.7 5.8,1.7 4.1,2.1 C2.4,2.6 1.1,3.3 0.9,2.5" fill="#109DA0"></path>
                        </g>
                        <g transform="translate(18.000000, 0.000000)">
                            <path d="M1,0.9 C0.7,1.7 2.1,1.8 3.8,2.5 C5.4,3.2 6.6,4.2 6.9,3.4 C7.2,2.6 6.2,1.4 4.6,0.7 C2.9,0.1 1.4,0.2 1,0.9 Z" fill="#19BCA4"></path>
                            <path d="M1,0.9 C0.7,1.7 2.1,1.8 3.8,2.5 C5.4,3.2 6.6,4.2 6.9,3.4" fill="#109DA0"></path>
                        </g>
                    </g>
                    <circle id="Oval" fill="#F7910B" cx="8.9" cy="30.6" r="1"></circle>
                    <ellipse id="Oval" fill="#F7910B" cx="4.6" cy="32.5" rx="1.1" ry="1.1"></ellipse>
                    <circle id="Oval" fill="#F7910B" cx="7.5" cy="28.6" r="1"></circle>
                    <circle id="Oval" fill="#F7910B" cx="11.9" cy="30.4" r="1"></circle>
                    <circle id="Oval" fill="#F9A908" cx="50" cy="30.9" r="1"></circle>
                    <circle id="Oval" fill="#F9A908" cx="52.4" cy="32.3" r="1"></circle>
                    <circle id="Oval" fill="#F9A908" cx="47.3" cy="23.7" r="1"></circle>
                    <circle id="Oval" fill="#F9A908" cx="46.8" cy="35" r="1.3"></circle>
                    <circle id="Oval" fill="#F9A908" cx="53.8" cy="35.1" r="1"></circle>
                    <circle id="Oval" fill="#F7910B" cx="8" cy="34.5" r="1"></circle>
                    <circle id="Oval" fill="#F7910B" cx="8.7" cy="26.3" r="1"></circle>
                    <ellipse id="Oval" fill="#F9A908" cx="3.6" cy="13" rx="1.1" ry="1.1"></ellipse>
                    <circle id="Oval" fill="#F9A908" cx="6.7" cy="9.5" r="1"></circle>
                    <ellipse id="Oval" fill="#F9A908" cx="56.5" cy="15.3" rx="1" ry="1"></ellipse>
                    <g transform="translate(36.000000, 17.000000)" id="Shape">
                        <path d="M6.9,5.1 C6.9,7 5.4,8.5 3.5,8.5 C1.6,8.5 0.1,7 0.1,5.1 C0.1,3.2 1.6,1.7 3.5,1.7 C5.4,1.7 6.9,3.2 6.9,5.1 Z" fill="#D87703"></path>
                        <path d="M6.9,4.1 C6.9,6 5.4,7.5 3.5,7.5 C1.6,7.5 0.1,6 0.1,4.1 C0.1,2.2 1.6,0.7 3.5,0.7 C5.4,0.7 6.9,2.2 6.9,4.1 Z" fill="#1E4784"></path>
                        <path d="M3.5,0.7 C5.4,0.7 6.9,2.2 6.9,4.1 C6.9,6 5.4,7.5 3.5,7.5" fill="#00233F"></path>
                    </g>
                    <g transform="translate(17.000000, 17.000000)">
                        <circle id="Oval" fill="#D87703" cx="3.9" cy="5.1" r="3.4"></circle>
                        <circle id="Oval" fill="#1E4784" cx="3.9" cy="4.1" r="3.4"></circle>
                        <path d="M3.9,0.7 C5.8,0.7 7.3,2.2 7.3,4.1 C7.3,6 5.8,7.5 3.9,7.5" id="Shape" fill="#00233F"></path>
                    </g>
                    <ellipse id="Oval" fill="#F9A908" cx="55.7" cy="12.4" rx="1" ry="1"></ellipse>
                    <circle id="Oval" fill="#F9A908" cx="58.2" cy="13" r="1"></circle>
                    <ellipse id="Oval" fill="#F9A908" cx="4.7" cy="15.8" rx="1" ry="1"></ellipse>
                    <g transform="translate(10.000000, 24.000000)" id="Shape">
                        <path d="M15.9,3 C15.9,4.2 12.5,3.6 8.3,3.6 C4.1,3.6 0.7,4.2 0.7,3 C0.7,1.8 4.1,0.8 8.3,0.8 C12.5,0.9 15.9,1.8 15.9,3 Z" fill="#F9C55D"></path>
                        <path d="M39.2,3 C39.2,4.2 35.8,3.6 31.6,3.6 C27.4,3.6 24,4.2 24,3 C24,1.8 27.4,0.8 31.6,0.8 C35.8,0.9 39.2,1.8 39.2,3 Z" fill="#F9A908"></path>
                    </g>
                </g>
                <g transform="translate(0.000000, 34.000000)" id="Shape">
                    <path d="M0.5,0 C0.8,12.7 12.3,22.4 30,22.4 C47.7,22.4 59.2,12 59.5,0 L0.5,0 Z" fill="#1E4784"></path>
                    <path d="M30.2,22.4 C47.9,22.4 59.3,12.2 59.4,0 L1,0" fill="#00233F"></path>
                    <path d="M30,22.4 C33.1,22.4 36,22.3 38.6,21.8 L34.6,2 L25.4,2 L21.4,21.8 C24,22.3 26.9,22.4 30,22.4 Z" fill="#FFFBEE"></path>
                </g>
            </g>
            <rect id="Rectangle-path" fill="#F7910B" transform="translate(30.044900, 37.983200) rotate(-45.008103) translate(-30.044900, -37.983200) " x="25.344945" y="33.283245" width="9.39990995" height="9.39990995"></rect>
            <path d="M34,37 L26,37 C25.4,37 25,36.6 25,36 C25,35.4 25.4,35 26,35 L34,35 C34.6,35 35,35.4 35,36 C35,36.6 34.6,37 34,37 Z" id="Shape" fill="#02243E"></path>
            <path d="M52,45 C52,45.5 51.6,46 51,46 L43,46 C42.5,46 42,45.6 42,45 L42,45 C42,44.5 42.4,44 43,44 L51,44 C51.6,44 52,44.4 52,45 L52,45 Z" id="Shape" fill="#FFFBEE"></path>
            <g id="Group" transform="translate(26.000000, 40.000000)">
                <polygon id="Shape" fill="#0C537A" points="1.5 2.3 2.8 4.3 0.8 20.4 3.1 23 4 23 4 0.8"></polygon>
                <polygon id="Shape" fill="#00233F" points="6.5 2.3 5.2 4.3 7.2 20.4 4.9 23 4 23 4 0.8"></polygon>
            </g>
            <polygon id="Shape" fill="#00233F" points="35 8 25 8 25 0.6 27.4 3 35 3"></polygon>
        </g>
    </g>
</svg>
